swiss/communes/0013.svg

<?xml version="1.0" encoding="UTF-8" standalone="no"?>
<!-- Created with Inkscape (http://www.inkscape.org/) -->
<svg
   xmlns:svg="http://www.w3.org/2000/svg"
   xmlns="http://www.w3.org/2000/svg"
   version="1.0"
   width="227.06171"
   height="265.9675"
   id="svg2780">
  <defs
     id="defs2782" />
  <g
     transform="translate(-10.48477,-799.9855)"
     id="layer1">
    <path
       d="M 11.48477,800.9855 L 15.576797,972.87126 C 18.499665,1095.6469 229.53157,1095.6469 232.45445,972.87126 L 236.54648,800.9855 L 11.48477,800.9855 z"
       id="path3282"
       style="fill:#2162bc;fill-opacity:1;fill-rule:evenodd;stroke:none;stroke-width:2;stroke-linecap:butt;stroke-miterlimit:4;stroke-dashoffset:0;stroke-opacity:1" />
    <path
       d="M 123.9375,-3.34375 C 112.09759,62.05361 71.179849,117.34379 15.09375,148.71875 L 15.5625,168.53125 C 15.915259,183.34897 19.31633,196.38397 25,207.625 C 63.726661,189.51203 97.578211,162.68452 124,129.65625 C 150.42381,162.69185 184.29309,189.51477 223.03125,207.625 C 228.71492,196.38397 232.11599,183.34897 232.46875,168.53125 L 232.9375,148.71875 C 176.84065,117.34446 135.90099,62.055425 124.0625,-3.34375 L 123.9375,-3.34375 z"
       transform="translate(0,804.33069)"
       id="path3776"
       style="opacity:1;color:#000000;fill:#ffffff;fill-opacity:1;fill-rule:evenodd;stroke:#000000;stroke-width:1pt;stroke-linecap:butt;stroke-linejoin:miter;marker:none;marker-start:none;marker-mid:none;marker-end:none;stroke-miterlimit:4;stroke-dasharray:none;stroke-dashoffset:0;stroke-opacity:1;visibility:visible;display:inline;overflow:visible;enable-background:accumulate" />
    <path
       d="M 11.48477,800.9855 L 15.576797,972.87126 C 18.499665,1095.6469 229.53157,1095.6469 232.45445,972.87126 L 236.54648,800.9855 L 11.48477,800.9855 z"
       id="path4547"
       style="fill:none;fill-opacity:1;fill-rule:evenodd;stroke:#000000;stroke-width:2;stroke-linecap:butt;stroke-miterlimit:4;stroke-dashoffset:0;stroke-opacity:1" />
  </g>
</svg>

<svg xmlns="http://www.w3.org/2000/svg" version="1.0" width="227.062" height="265.967"><path d="m11.485 800.986 4.092 171.885c2.923 122.776 213.955 122.776 216.877 0l4.092-171.885H11.485z" style="fill:#2162bc;fill-opacity:1;fill-rule:evenodd;stroke:none;stroke-width:2;stroke-linecap:butt;stroke-miterlimit:4;stroke-dashoffset:0;stroke-opacity:1" transform="translate(-10.485 -799.986)"/><path d="M123.938-3.344C112.097 62.054 71.18 117.344 15.094 148.72l.469 19.812c.352 14.818 3.753 27.853 9.437 39.094 38.727-18.113 72.578-44.94 99-77.969 26.424 33.036 60.293 59.859 99.031 77.969 5.684-11.241 9.085-24.276 9.438-39.094l.469-19.812C176.84 117.344 135.9 62.055 124.063-3.344h-.126z" transform="translate(-10.485 4.345)" style="opacity:1;color:#000;fill:#fff;fill-opacity:1;fill-rule:evenodd;stroke:#000;stroke-width:1pt;stroke-linecap:butt;stroke-linejoin:miter;marker:none;marker-start:none;marker-mid:none;marker-end:none;stroke-miterlimit:4;stroke-dasharray:none;stroke-dashoffset:0;stroke-opacity:1;visibility:visible;display:inline;overflow:visible;enable-background:accumulate"/><path d="m11.485 800.986 4.092 171.885c2.923 122.776 213.955 122.776 216.877 0l4.092-171.885H11.485z" style="fill:none;fill-opacity:1;fill-rule:evenodd;stroke:#000;stroke-width:2;stroke-linecap:butt;stroke-miterlimit:4;stroke-dashoffset:0;stroke-opacity:1" transform="translate(-10.485 -799.986)"/></svg>
